X: 3
T: Mylecharaine's March
Z: manxygirl
S: https://thesession.org/tunes/11795#setting22078
R: waltz
M: 3/4
L: 1/8
K: Emin
e2 | d2 B2 e2 | e4 e2 | d2 B2 G2 | F4 f2 |
g2 f2 e2 | e2 ^d2 e2 | f5-|f4 f2 |
g2 b2 g2 | f2 g2 e2 | d2 B2 G2 | F4 GA|
B2 G2 E2 | F2 e2 d2 | e5-|e4 ||
